!!!OTL: AUF DER BERGE FREIEN HOEHEN
!!!ARE: Europa, Mitteleuropa, Deutschland
!!!SCT: F0798
!!!YEM: Copyright 1995, estate of Helmut Schaffrath.
**kern
*ICvox
*Ivox
*M4/4
*k[b-e-a-]
*E-:
=1
{4e-
4e-
4g
4g
=2
4.b-
8a-
4g
4f}
=3
{4e-
4f
8g
8a-
4b-
=4
8a-
8b-
8a-
8g
4f
4r}
=5
{4e-
4e-
4g
4g
=6
4.b-
8a-
4g
4e-}
=7
{4an
4f
4b-
4b-
=8
8dd
8cc
8b-
8an
4b-
4r}
=9
{4d
4e-
4f
4d
=10
8f
8e-
8f
8g
4a-
4f}
=11
{4.g
8a-
4b-
4b-
=12
4a-
4g
2f}
=13
{4.g
8f
4e-
4e-
=14
4f
4g
4a-
4f}
=15
{4b-
4cc
4a-
4g
=16
2cc
2d
=17
2e-
2r}
==
!!!AGN: Geselligkeits -, Trink - Lied
!!!ONB: ESAC (Essen Associative Code) Database: FINK
!!!AMT: simple quadruple
!!!AIN: vox
!!!EED: Helmut Schaffrath
!!!EEV: 1.0
*-
